X: 13
T:Danza das zocas
M:6/8
L:1/8
Q:200
C:Trad.
R:Muiñeira
B:Leccións de Gaita. OTERO COVELO
K:C
E>DC |: G3 E>DC | G3 E>DC | D>EF F>ED |
E>DC E>DC | G3 E>DC | G3 E>DC | D>EF | F>ED |1
C3 E>DC :|2 C3 E2 F |: G>AB c>BA | A>GA c>BA |
B>AG A>GF | A2G E2F | G>AB c>BA | A>GA c>BA |
B>AG A>GF |1 E3 E2F :|2 E3 ||

